X:5
T: Corn in the Husk
C: Larry Cusick
M: 6/8
K: G
BdB AFA | Bde ged | BdB AFA | BAF EFA |
BdB AFA | Bde ged | gea ged | BAF EFA :|
EAB dBA | FdB AFD | EAB dAB | AFE DFD |
EAB dBA | FdB AFD | gea ged | BAF EFA :|
dgg bga | eae geB | dgg bga | eae gea |
dgg bga | eae geB | gea ged | BAF EFA :|
